X:7429
T:THE TRIUMPH
O:england
C:Traditional
M:2/4
L:1/16
K:G
g2|d2B2B2G2|c2A2A2F2|G2g2f2e2|
e4d2g2|d2c2B2A2|B2A2G2F2|G4B4|
[1G4G2:|[2G4G4|:A4c4|B4d4|A4c4|B4d4|
A2A2A2d2|B2B2B2g2|B4A4|G4G4:|
|:B4B2d2|d2c2B2A2|A4A2c2|c4B4|
A2B2c2d2|e2f2g2e2|d2c2B2A2|G4G4:|


